X:12
T:12 Quando corpus morietur
T:à due
M:C
L:1/8
%%staves s | a | {1 2 3}
Q:"Largo assai"
K:Fm
V:s name=Sopran dyn=up
z8|z8|
V:a name=Alt dyn=up
z8|z8|
V:1 name="Str.\nBc."
c3f(f2=e2)|g3B(B2A2)|
V:2
!dolces!z/(F/A/F/) z/(F/A/F/) z/(A/F/C/) z/(G/=E/C/)|z/(B/G/=E/) z/(G/E/C/) z/(E/G/E/) z/(F/A/F/)|
V:3
F,z F,z C,z C,z|=E,z E,z F,z F,z|
% (57)
V:s		% M3
z8|z8|
V:a
z8|z8|
V:1
f3A(A2G2)|d3=e{e}f3d|
V:2
!sim!z/A/F/=D/ z/D/F/D/ z/C/F/C/ z/C/=E/C/|z/F/=E/F/ z/B/G/B/ z/c/A/F/ z/G/B/G/|
V:3
=B,,z B,,z C,z Cz|Cz _B,z A,z B,z|
V:s		% M5
z8|z8|
V:a
z8|z8|
V:1
{d}c3=E{E}F4|d3=e{e}f3d|
V:2
z/A/F/C/ z/C/=E/C/ z/A/E/F/ z/A/E/F/|!sottov!z/G/B/G/ z/B/G/B/ z/c/A/F/ z/G/B/G/|
V:3
Cz C,z D,z D,z|B,z G,z A,z B,z|
V:s		% M7
z8|!sost!c2f2f2=e2|
w:Quan-do cor-pus
V:a
z8|z4!sost!G2B2|
w:Quan-do
V:1
{d}c3=E{E}F4|x8|
V:2
z/F/A/F/ z/C/=E/C/ z/A/F/C/ z/A,/C/A,/|z/(c/A/F/) z/(c/A/F/) z/(B/G/F/) z/(B/G/=E/)|
V:3
Cz C,z F,,z F,,z|F,z F,z C,z C,z|
% (58)
V:s		% M9
z4f2A2|A2G2c3e|
w:mo-ri-e-tur fac ut
V:a
B2A2A2F2|F2=E2z4|
w:cor-pus mo-ri-e-tur
V:1
x8|!sim!x8|
V:2
z/(B/G/=E/) z/(c/A/F/) z/(A/F/=D/) z/(A/F/D/)|z/A/F/C/ z/G/=E/C/ z/c/=A/F/ z/_e/c/A/|
V:3
F,z F,z =B,,z B,,z|C,z C,z =A,z F,z|
V:s		% M11
{e}d3B{B}c3{B}=A|B/=A/B3z4|
w:a-ni-mae do-ne -tur
V:a
z8|z4B3d|
w:fac ut
V:1
x8|x8|
V:2
z/f/d/B/ z/d/B/F/ z/_G/E/C/ z/E/C/=A,/|z/B,/D/F/ z/D/F/B/ z/B/=G/E/ z/d/B/G/|
V:3
B,,z D,z E,z F,z|B,z _A,z G,z E,z|
V:s		% M13
z8|e3ee4-|
w:pa-ra-di-
V:a
{d}c3A{A}B3{A}G|A/G/ Az2B3B|
w:a-ni-mae do-ne -tur pa-ra-
V:1
x8|x8|
V:2
z/e/c/A/ z/c/A/E/ z/F/D/B,/ z/D/B,/G,/|z/c/A/E/ z/c/A/E/ z/e/B/_G/ z/e/B/G/|
V:3
A,z C,z D,z E,z|A,z A,z _G,z G,z|
% (59)
V:s		% M15
e2d2c3c|B2z2z4|
w:-si glo-ri-a.
V:a
=A2B2(B2A3/) A/|B2z2z4|
w:di-si glo -ri-a.
V:1
x8|x8|
V:2
z/e/c/=A/ z/d/B/F/ z/c/B/F/ z/c/A/F/|z/f/d/B/ z/d/B/F/ z/_G/E/C/ z/E/C/=A,/|
V:3
F,z F,z F,z F,z|B,,z D,z E,z F,z|
V:s		% M17
z4g2B2|B2A2=B4|
w:Quan-do cor-pus mo-
V:a
d2F2=E4|F4F4|
w:Quan-do cor-pus mo-
V:1
x8|x8|
V:2
z/B,/D/F/ z/d/B/F/ z/=G/=E/C/ z/B/G/E/|z/c/B/F/ z/c/A/F/ z/=B/A/F/ z/B/A/F/|
V:3
B,,z D,z C,z C,z|C,z C,z C,z C,z|
V:s		% M19
_B4(=A2_A2)|{A}G2z2_d2=e2|
w:ri-e -tur fac ut
V:a
=E4F4|=E2c4B2|
w:ri-e-tur fac ut
V:1
x8|x8|
V:2
z/_B/G/=E/ z/B/G/E/ z/=A/F/C/ z/_A/F/=B,/|z/G/=E/C/ z/G/E/C/ z/_d/B/G/ z/B/G/=E/|
V:3
C,z C,z C,z C,z|C,z C,z C,z C,z|
% (60)
V:s		% M21
f2_e2d2f2|=e/=d/c3_d3=e|
w:a-ni-mae do-ne -tur pa-ra-
V:a
A2=A2B2=B2|{=B}c2C2z4|
w:a-ni-mae do-ne-tur
V:1
x8|x8|
V:2
z/c/A/F/ z/_e/c/=A/ z/d/B/F/ z/f/=d/=B/|z/g/=e/c/ z/e/c/G/ z/_d/_B/G/ z/B/G/=E/|
V:3
C,z C,z C,z C,z|C,z Cz B,z G,z|
V:s		% M23
{=e}f3B{B}A3G|F2z2f2f2|
w:di-si glo-ri-a, pa-ra-
V:a
z8|B2B2B4-|
w:pa-ra-di-
V:1
x8|x8|
V:2
z/c/A/F/ z/_d/B/G/ z/c/A/F/ z/B/G/=E/|z/_d/=A/B/ z/d/A/B/ z/f/d/B/ z/f/d/B/|
V:3
A,z B,z Cz C,z|D,z D,z D,z D,z|
V:s		% M25
=e2f2(f2e) e|f2Hz2!dolcea!B2B2|
w:di-si glo -ri-a, pa-ra-
V:a
B2A2G3G|F2Hz2z4|
w:-si glo-ri-a,
V:1
x8|x4!sottov!x4|
V:2
z/b/g/=e/ z/_a/f/c/ z/g/f/c/ z/g/e/B/|{B}A2Hz2z/(_d/=A/B/) z/(d/A/B/)|
V:3
C,z C,z C,z C,z|D,2 Hz2 D,z D,z|
% (61)
V:s		% M27
B6A2|G3GF2z2|
w:di-si glo-ri-a.
V:a
!dolcea!F2F2=E2F2|(F2=E) EF2z2|
w:pa-ra--si glo -ri-a,
V:1
x8|x8|
V:2
z/(_d/B/F/) z/(d/B/F/) z/(B/G/=E/) z/(c/_A/F/)|z/(c/G/F/) z/(B/G/=E/) z/(A/E/F/) z/(c/A/F/)|
V:3
D,z D,z C,z C,z|C,z C,z F,z A,,z|
V:s		% M29
Hz8||[M:C|][Q:"Presto assai"]!forte!c8|d8|(c8|B8|
w:A-men a -
V:a
Hz8||[M:C|]z8|z8|z8|z8|
V:1
x8||[M:C|]x8|x8|x8|x8|
V:2
z/(d/B/G/) z/(B/G/=E/)F2Hz2||[M:C|]!forte!c8|d8|c8|B8|
V:3
B,,z C,zF,,2Hz2||[M:C|]z4A2F2|B4G2E2|A4F2D2|G4=E2C2|
V:s		% M34
A4)(B2A2)|TG8|F4z4|z4f4-|f4e4-|e4=d4-|
w:-men,_ a-men, a ----
V:a
z8|z8|!forte!F8|A8|(G8|F8|
w:A-men a -
V:1
x8|x8|f8|a8|g8|f8|
V:2
A4B2A2|TG8|F4C2B,2|A,4f4-|f4e4-|e4=d4-|
V:3
F2_E2D2C2|B,4C4|z4A,2G,2|F,4F2=D2|E4C2A,2|=D4=B,2G,2|
% (62)
V:s		% M40
d4c4-|c4=B4|c4z4|f8|=e4_e4|=d4_d4|c4d2c2|
w:----men, a -------
V:a
E4)(F2E2)|T=D8|C4c4-|c4B4-|B4A4-|A4G4-|G4F4-|
w:-men,_ a-men, a --------
V:1
e4f2e2|=d8|e4c'4-|c'4b4-|b4a4-|a4g4-|g4f4-|
V:2
d4c4-|c4=B4|c4=e2c2|f4b2f2|=e4_e2c2|=d4_d2B2|c4d2c2|
V:3
C2_B,2A,2G,2|(F,4G,4)|!forte!C8|D8|C8|B,8|A,4B,2A,2|
V:s		% M47
TB8|A4c4-|c4B2A2|G4f4|_d4=B4|c4z2f2|
w:-men, a ---men, a-men, a-men, a-
V:a
F4=E4|F4A4-|A4G2F2|=E4z4|z8|c8-|
w:--men, a ---men, a-
V:1
f4=e4|[Af]4[ca]4-|[ca]4[Bg]2[Af]2|[G=e]2a2f2a2|d2f2=B2=d2|c8-,|
V:2
TB8|x8|x8|x8|x8|c6f2|
V:3
G,8|F,4F,4|B,,4B,,4|C,4z4|z8|C,2C2B,2A,2|
V:s		% M53
=e2=d2c2=B2|c6f2|=e2=d2c2=B2|c4z4|z8|f8-|
w:----------men, a-
V:a
c8-|c8-|c8-|c2_d2c2_B2|A2G2F2=E2|F6B2|
w:-------------
V:1
c8|c8-,|c8|c2_d2c2_B2|A2G2F2=E2|f8-|
V:2
=e2=d2c2=B2|c6f2|=e2=d2c2=B2|x8|x8|F6B2|
V:3
G,2F,2=E,2=D,2|C,2C2B,2A,2|G,2F,2=E,2=D,2|C,4z4|z8|F,,2F,2_E,2_D,2|
% (63)
V:s		% M59
f8-|f8-|f8-|f2_g2f2_e2|_d2c2B2=A2|B6e2|
w:-------------
V:a
=A2G2F2=E2|F6B2|=A2G2F2=E2|F4z4|z8|B8-|
w:----------men, a-
V:1
f8-|f8-|f8-|[Ff]2_g2f2_e2|_d2c2B2=A2|b8-|
V:2
=A2G2F2=E2|F6B2|=A2G2F2=E2|x8|x8|B6e2|
V:3
C,2B,,2=A,,2G,,2|F,,2F,2E,2D,2|C,2B,,2=A,,2G,,2|F,,4z4|z8|B,,2B,2_A,2_G,2|
V:s		% M65
d2c2B2=A2|B6e2|d2c2B2=A2|B4z4|z8|c8-|
w:----------men, a-
V:a
B8-|B8-|B8-|B2c2d2c2|B2A2G2F2|=E6c2|
w:-------------
V:1
b8-|b8-|b8-|[Bb]2c'2d'2c'2|b2_a2g2f2|=e6c'2|
V:2
d2c2B2=A2|B6e2|d2c2B2=A2|x8|x8|c8-|
V:3
F,2E,2D,2C,2|B,,2B,2A,2_G,2|F,2E,2D,2C,2|B,,4z4|z8|C,2C2B,2A,2|
V:s		% M71
c8-|c8-|c8|c8|d8|c8|
w:---men, a -
V:a
B2A2G2F2|=E6c2|B2A2G2F2|=E4c4-|c4B4-|B4A4-|
w:----------men, a ----
V:1
b2a2g2f2|=e6c'2|b2a2g2f2|=e4c4|d4b2d2|c4a2c2|
V:2
c8-|c8-|c8|C4c4-|c4B4-|B4A4-|
V:3
=G,2F,2=E,2=D,2|C,2C2B,2A,2|G,2F,2=E,2=D,2|C,8-|C,8-|C,8-|
% (64)
V:s		% M77
B8|A4B2A2|G8|F4z4|z4_e4|d4z4|
w:-----men, a-men,
V:a
A4G4-|G4F4-|F4=E4|F4z4|z4F4|F4z4|
w:------men, a-men,
V:1
B4g2B2|A4f2A2|G8|F2a2g2a2|f2a2c2_e2|d2b2a2b2|
V:2
A4G4-|G4(F4-|F4=E4)|x8|x8|x8|
V:3
C,8-|C,8-|C,8|F,,4z4|z4=A,4|B,4z4|
V:s		% M83
z4f4|=e4f4|f4=e4|f4z4|z4!dolce!_e4|d4z4|
w:a-men, a-men, a-men, a-men,
V:a
z4G4|G4A4|G4G4|F4z4|z4!dolce!F4|F4z4|
w:a-men, a-men, a-men, a-men,
V:1
g2b2=d2f2|=e2c2f2A2|G2f2G2=e2|f2a2g2a2|f2a2c2_e2|_d2b2a2b2|
V:2
x8|x8|x8|x2!dolce!x6|x8|x8|
V:3
z4=B,4|C4_A,4|_B,4C4|F,4z4|z4!dolce![=A,,=A,]4|[B,,B,]4z4|
V:s		% M89
z4!forte!f4|=e4f4|f4=e4|f4!fortea!w=e4|wf4wc4|F4Hz4|]
w:a-men, a-men, a-men, a-men, a-men.
V:a
z4!forte!G4|G4A4|G4G4|F4!fortea!wB4|wA4w=E4|F4Hz4|]
w:a-men, a-men, a-men, a-men, a-men.
V:1
g2b2=d2f2|=e2c2f2A2|G2f2G2=e2|F2[fa]2z2[=eg]2|z2[fa]2z2[=EG]2|[Fcf]4Hz4|]
V:2
x4!forte!x4|x8|x8|x8|x8|x8|]
V:3
z4[=B,,=B,]4|[C,C]4[_A,,_A,]4|[B,,B,]4[C,C]4|F,4[C,C]4|[F,F]4[C,C]4|[F,,F,]4Hz4|]
